src/assets/icons/weeks,fancy,40.svg

<svg width="48" height="48" viewBox="0 0 48 48" fill="none" xmlns="http://www.w3.org/2000/svg">
<rect opacity="0.2" x="4" y="6" width="40" height="40" rx="4" fill="black"/>
<path d="M6.21538 37.4205H15.9895V41H20.106V37.4205H22.6316V33.9702H20.106V20.6364H14.7168L6.21538 34.0298V37.4205ZM16.0691 33.9702H10.5506V33.8111L15.91 25.3295H16.0691V33.9702ZM33.4846 41.4474C38.6053 41.4474 41.6976 37.5497 41.7076 30.8381C41.7175 24.1761 38.5854 20.358 33.4846 20.358C28.3738 20.358 25.2715 24.1662 25.2615 30.8381C25.2417 37.5298 28.3539 41.4375 33.4846 41.4474ZM33.4846 37.8778C31.1479 37.8778 29.6365 35.5312 29.6465 30.8381C29.6564 26.2145 31.1578 23.8878 33.4846 23.8878C35.8013 23.8878 37.3127 26.2145 37.3127 30.8381C37.3226 35.5312 35.8113 37.8778 33.4846 37.8778Z" fill="black"/>
<g opacity="0.4">
<path d="M10 4C10 2.89543 10.8954 2 12 2C13.1046 2 14 2.89543 14 4V8C14 9.10457 13.1046 10 12 10C10.8954 10 10 9.10457 10 8V4Z" fill="black"/>
<path d="M34 4C34 2.89543 34.8954 2 36 2C37.1046 2 38 2.89543 38 4V8C38 9.10457 37.1046 10 36 10C34.8954 10 34 9.10457 34 8V4Z" fill="black"/>
</g>
<path fill-rule="evenodd" clip-rule="evenodd" d="M10 6.00869C7.52043 6.04456 6.11466 6.22849 5.17157 7.17157C4 8.34315 4 10.2288 4 14V16H44V14C44 10.2288 44 8.34315 42.8284 7.17157C41.8853 6.22849 40.4796 6.04456 38 6.00869V8C38 9.10457 37.1046 10 36 10C34.8954 10 34 9.10457 34 8V6H14V8C14 9.10457 13.1046 10 12 10C10.8954 10 10 9.10457 10 8V6.00869Z" fill="black"/>
</svg>

<svg xmlns="http://www.w3.org/2000/svg" width="48" height="48" fill="none" viewBox="0 0 48 48">
  <rect width="40" height="40" x="4" y="6" fill="#000" opacity=".2" rx="4"/>
  <path fill="#000" d="M6.215 37.42h9.774V41h4.117v-3.58h2.526v-3.45h-2.526V20.636h-5.39l-8.5 13.394v3.39zm9.854-3.45h-5.518v-.159l5.359-8.482h.16v8.641zm17.416 7.477c5.12 0 8.213-3.897 8.223-10.609.01-6.662-3.123-10.48-8.223-10.48-5.111 0-8.213 3.808-8.223 10.48-.02 6.692 3.092 10.6 8.223 10.61zm0-3.57c-2.337 0-3.848-2.346-3.838-7.039.01-4.623 1.51-6.95 3.838-6.95 2.316 0 3.828 2.326 3.828 6.95.01 4.693-1.502 7.04-3.828 7.04z"/>
  <g opacity=".4">
    <path fill="#000" d="M10 4a2 2 0 114 0v4a2 2 0 11-4 0V4zM34 4a2 2 0 114 0v4a2 2 0 11-4 0V4z"/>
  </g>
  <path fill="#000" fill-rule="evenodd" d="M10 6.009c-2.48.036-3.885.22-4.828 1.163C4 8.343 4 10.229 4 14v2h40v-2c0-3.771 0-5.657-1.172-6.828-.943-.944-2.348-1.127-4.828-1.163V8a2 2 0 11-4 0V6H14v2a2 2 0 11-4 0V6.009z" clip-rule="evenodd"/>
</svg>
